images/gen-slider/8.svg

<svg width="258" height="80" viewBox="0 0 258 80" fill="none" xmlns="http://www.w3.org/2000/svg">
<path d="M18.028 13.12H23.508C30.428 13.12 32.748 15.16 32.748 21.32C32.748 28.68 29.388 29.36 22.788 29.36C20.068 29.36 17.228 29.28 14.108 29H14.028L14.028 1.4C16.948 1.24 19.828 1.12 22.708 1.12C25.548 1.12 28.388 1.24 31.188 1.4L30.868 4.76L18.028 4.76L18.028 13.12ZM18.028 25.88L23.508 25.92C27.748 25.92 28.708 25.04 28.708 21.12C28.708 17.48 27.868 16.24 23.508 16.24H18.028V25.88ZM59.0523 29H55.1723V9.52C55.1723 8.4 55.2123 7.32 55.4123 6.24H55.1723C54.7723 7.32 54.2123 8.48 53.7323 9.36L42.1323 29H38.0123V1.4L41.8523 1.4V20.68C41.8523 21.84 41.7723 22.92 41.6123 24.08H41.8123C42.2523 23 42.7723 21.96 43.3723 20.96L54.8923 1.4H59.0523V29ZM65.7858 29V1.4C68.8258 1.08 70.8658 1.04 75.4258 1.04C82.1858 1.04 84.4258 2.96 84.4258 9.76C84.4258 16.64 82.1858 18.52 75.8658 18.52C73.6658 18.52 71.5058 18.36 69.8258 18.16V29H65.7858ZM69.8258 15.08H75.3058C79.1458 15.04 80.3858 13.96 80.3858 9.76C80.3858 5.56 79.1458 4.48 75.3058 4.48C73.1858 4.48 71.3058 4.48 69.8258 4.52V15.08ZM93.4977 13.04H99.5377C99.8977 3.88 102.778 0.88 109.978 0.88C118.138 0.88 121.058 4.36 121.058 15.2C121.058 26.04 118.138 29.52 109.978 29.52C102.498 29.52 99.6977 26.28 99.5377 16.28H93.4977V29H89.4977V1.4H93.4977V13.04ZM109.978 25.96C115.138 25.96 116.778 23.36 116.818 15.2C116.778 7.04 115.138 4.44 109.978 4.44C105.018 4.44 103.458 7.04 103.458 15.2C103.458 23.36 105.018 25.96 109.978 25.96ZM125.412 4.8L125.092 1.72C127.532 1.28 129.772 1.08 132.852 1.08C139.612 1.08 141.972 2.6 141.972 8.28C141.972 12.24 140.612 14.28 137.332 14.6V14.76C141.412 15.12 142.772 17.72 142.772 22.12C142.772 27.8 140.292 29.32 134.052 29.32C130.172 29.32 127.212 29.04 124.412 28.36L124.772 25.48C127.012 25.76 130.012 26.04 133.372 26.04C137.332 26.04 138.692 25.2 138.692 21.44C138.692 17.4 137.252 16.28 133.092 16.28H128.372V13.12H133.092C136.732 13.12 137.972 12.2 137.972 8.76C137.972 5.16 136.612 4.32 132.612 4.32C129.612 4.32 127.292 4.6 125.412 4.8ZM158.403 0.88C166.563 0.88 169.443 4.36 169.443 15.2C169.443 26.04 166.563 29.52 158.403 29.52C150.283 29.52 147.403 26.04 147.403 15.2C147.403 4.36 150.283 0.88 158.403 0.88ZM158.403 4.44C153.243 4.44 151.603 7.04 151.603 15.2C151.603 23.36 153.243 25.96 158.403 25.96C163.603 25.96 165.243 23.36 165.243 15.2C165.243 7.04 163.603 4.44 158.403 4.44ZM188.921 14.6V14.76C193.041 15.12 194.441 17.72 194.441 22.12C194.441 27.8 191.921 29.32 185.561 29.32C180.801 29.32 178.361 29.28 175.161 29V1.4C178.001 1.12 180.201 1.08 184.361 1.08C191.161 1.08 193.601 2.6 193.601 8.28C193.601 12.24 192.241 14.28 188.921 14.6ZM179.081 13.16H184.681C188.441 13.16 189.761 12.28 189.761 8.76C189.761 5.28 188.321 4.48 184.161 4.48H179.081V13.16ZM179.081 25.88L184.961 25.92C189.081 25.92 190.401 25.08 190.401 21.44C190.401 17.36 189.001 16.28 184.721 16.24H179.081V25.88ZM214.684 20.68L203.684 20.68L201.124 29H197.044L205.684 2.48C205.884 1.8 206.444 1.4 207.164 1.4H211.244C211.924 1.4 212.524 1.8 212.684 2.48L221.364 29H217.244L214.684 20.68ZM213.644 17.2L210.404 6.72C210.204 6 209.924 5.2 209.724 4.48H208.644L208.004 6.72L204.764 17.2H213.644ZM229.683 16.64L229.643 16.44C225.883 15.92 224.443 13.48 224.483 9.12C224.483 3.28 227.043 1.04 233.363 1.04C237.843 1.04 239.963 1.08 242.963 1.4V29H238.963V17.92L233.403 17.96C231.603 17.96 230.483 18.72 229.923 20.72L227.603 29H223.363L225.803 20.56C226.523 18.08 228.203 17 229.683 16.64ZM238.963 14.52V4.52C237.483 4.48 235.603 4.48 233.443 4.48C229.763 4.48 228.523 5.52 228.483 9.36C228.483 12.88 229.723 14.52 233.363 14.52H238.963ZM25.1389 64.52V64.68C30.3789 65.2 31.6989 70 34.7789 79H30.5389C27.4989 70.56 26.3389 66.2 21.8589 66.24H19.3789C19.5389 67.2 19.6189 68.16 19.6189 69.08V79H15.8189V69.08C15.8189 68.16 15.9389 67.2 16.0989 66.24H13.4189C8.97891 66.2 7.81891 70.56 4.73891 79H0.538906C3.61891 70 4.93891 65.2 10.1389 64.68V64.52C5.21891 64 3.85891 59 1.25891 51.4H5.33891C7.77891 58.24 9.25891 63 13.3389 63H16.0589C15.8989 62 15.8189 60.96 15.8189 59.88L15.8189 51.4H19.6189L19.6189 59.88C19.6189 60.96 19.5789 62 19.4189 63H21.8989C26.0189 63 27.4989 58.24 29.9789 51.4H34.0589C31.4589 59 30.0189 64 25.1389 64.52ZM56.2614 75.68L56.4214 78.76C52.7814 79.08 48.5414 79.08 44.5814 79.08C41.1414 79.08 39.0614 77.16 39.0614 74.12V56.28C39.0614 53.24 41.1814 51.32 44.5814 51.32C48.5414 51.32 52.7814 51.32 56.4214 51.64L56.2614 54.76H45.2614C43.6614 54.76 43.0614 55.44 43.0614 57.32V62.84H54.7014V66.08H43.0614V73.12C43.0614 75 43.6614 75.68 45.2614 75.68H56.2614ZM83.6833 51.4H88.0433C89.0833 51.4 89.6433 52 89.6833 53.04L90.8033 79H86.8033L85.8433 54.72H85.0433L79.4433 74.36C79.2033 75.28 78.6433 75.72 77.7233 75.72H74.2433C73.3233 75.72 72.7233 75.28 72.4833 74.36L66.8433 54.72H66.0833L65.1633 79H61.2033L62.2433 53.04C62.2833 52 62.8433 51.4 63.8833 51.4H68.3233C69.2433 51.4 69.7233 51.88 70.0033 52.76L74.6833 68.92C75.0433 70.2 75.3233 71.4 75.6033 72.64H76.3233C76.6033 71.36 76.8833 70.2 77.2833 68.88L81.9233 52.76C82.2033 51.88 82.7233 51.4 83.6833 51.4ZM115.438 51.4L115.438 79H111.438L111.438 66.68C108.198 68.4 104.638 69.08 102.198 69.08C97.9177 69.08 95.9177 67.04 95.9177 62.76V51.4H99.9177V61.96C99.8777 64.44 100.918 65.52 103.638 65.52C106.278 65.52 108.318 65.04 111.438 63.6V51.4H115.438ZM141.074 51.4L133.754 72.16C132.354 76 130.794 79 127.354 79.28C125.914 79.4 123.514 79.08 122.154 78.68L122.594 75.76C127.914 76.12 128.154 75.96 129.674 72.16L130.154 71H128.674C127.074 71 126.274 70.4 125.754 69L119.514 51.4H123.594L128.954 67.04C129.114 67.4 129.394 67.64 129.794 67.64H131.314L136.994 51.4H141.074ZM167.209 64.52V64.68C172.449 65.2 173.769 70 176.849 79H172.609C169.569 70.56 168.409 66.2 163.929 66.24H161.449C161.609 67.2 161.689 68.16 161.689 69.08L161.689 79H157.889L157.889 69.08C157.889 68.16 158.009 67.2 158.169 66.24H155.489C151.049 66.2 149.889 70.56 146.809 79H142.609C145.689 70 147.009 65.2 152.209 64.68V64.52C147.289 64 145.929 59 143.329 51.4H147.409C149.849 58.24 151.329 63 155.409 63H158.129C157.969 62 157.889 60.96 157.889 59.88V51.4H161.689V59.88C161.689 60.96 161.649 62 161.489 63H163.969C168.089 63 169.569 58.24 172.049 51.4H176.129C173.529 59 172.089 64 167.209 64.52ZM202.412 79H198.532L198.532 59.52C198.532 58.4 198.572 57.32 198.772 56.24H198.532C198.132 57.32 197.572 58.48 197.092 59.36L185.492 79H181.372L181.372 51.4H185.212V70.68C185.212 71.84 185.132 72.92 184.972 74.08H185.172C185.612 73 186.132 71.96 186.732 70.96L198.252 51.4H202.412L202.412 79ZM229.225 51.4V79H225.185V66H213.145L213.145 79H209.145L209.145 51.4L213.145 51.4V62.56H225.185V51.4H229.225ZM250.582 70.68H239.582L237.022 79H232.942L241.582 52.48C241.782 51.8 242.342 51.4 243.062 51.4H247.142C247.822 51.4 248.422 51.8 248.582 52.48L257.262 79H253.142L250.582 70.68ZM249.542 67.2L246.302 56.72C246.102 56 245.822 55.2 245.622 54.48H244.542L243.902 56.72L240.662 67.2H249.542Z" fill="white"/>
</svg>

<svg width="258" height="80" fill="none" xmlns="http://www.w3.org/2000/svg"><path d="M18.028 13.12h5.48c6.92 0 9.24 2.04 9.24 8.2 0 7.36-3.36 8.04-9.96 8.04-2.72 0-5.56-.08-8.68-.36h-.08V1.4c2.92-.16 5.8-.28 8.68-.28 2.84 0 5.68.12 8.48.28l-.32 3.36h-12.84v8.36zm0 12.76l5.48.04c4.24 0 5.2-.88 5.2-4.8 0-3.64-.84-4.88-5.2-4.88h-5.48v9.64zM59.052 29h-3.88V9.52c0-1.12.04-2.2.24-3.28h-.24c-.4 1.08-.96 2.24-1.44 3.12L42.132 29h-4.12V1.4h3.84v19.28c0 1.16-.08 2.24-.24 3.4h.2c.44-1.08.96-2.12 1.56-3.12L54.892 1.4h4.16V29zm6.734 0V1.4c3.04-.32 5.08-.36 9.64-.36 6.76 0 9 1.92 9 8.72 0 6.88-2.24 8.76-8.56 8.76-2.2 0-4.36-.16-6.04-.36V29h-4.04zm4.04-13.92h5.48c3.84-.04 5.08-1.12 5.08-5.32s-1.24-5.28-5.08-5.28c-2.12 0-4 0-5.48.04v10.56zm23.672-2.04h6.04c.36-9.16 3.24-12.16 10.44-12.16 8.16 0 11.08 3.48 11.08 14.32s-2.92 14.32-11.08 14.32c-7.48 0-10.28-3.24-10.44-13.24h-6.04V29h-4V1.4h4v11.64zm16.48 12.92c5.16 0 6.8-2.6 6.84-10.76-.04-8.16-1.68-10.76-6.84-10.76-4.96 0-6.52 2.6-6.52 10.76s1.56 10.76 6.52 10.76zM125.412 4.8l-.32-3.08c2.44-.44 4.68-.64 7.76-.64 6.76 0 9.12 1.52 9.12 7.2 0 3.96-1.36 6-4.64 6.32v.16c4.08.36 5.44 2.96 5.44 7.36 0 5.68-2.48 7.2-8.72 7.2-3.88 0-6.84-.28-9.64-.96l.36-2.88c2.24.28 5.24.56 8.6.56 3.96 0 5.32-.84 5.32-4.6 0-4.04-1.44-5.16-5.6-5.16h-4.72v-3.16h4.72c3.64 0 4.88-.92 4.88-4.36 0-3.6-1.36-4.44-5.36-4.44-3 0-5.32.28-7.2.48zM158.403.88c8.16 0 11.04 3.48 11.04 14.32s-2.88 14.32-11.04 14.32c-8.12 0-11-3.48-11-14.32s2.88-14.32 11-14.32zm0 3.56c-5.16 0-6.8 2.6-6.8 10.76s1.64 10.76 6.8 10.76c5.2 0 6.84-2.6 6.84-10.76s-1.64-10.76-6.84-10.76zm30.518 10.16v.16c4.12.36 5.52 2.96 5.52 7.36 0 5.68-2.52 7.2-8.88 7.2-4.76 0-7.2-.04-10.4-.32V1.4c2.84-.28 5.04-.32 9.2-.32 6.8 0 9.24 1.52 9.24 7.2 0 3.96-1.36 6-4.68 6.32zm-9.84-1.44h5.6c3.76 0 5.08-.88 5.08-4.4 0-3.48-1.44-4.28-5.6-4.28h-5.08v8.68zm0 12.72l5.88.04c4.12 0 5.44-.84 5.44-4.48 0-4.08-1.4-5.16-5.68-5.2h-5.64v9.64zm35.603-5.2h-11l-2.56 8.32h-4.08l8.64-26.52c.2-.68.76-1.08 1.48-1.08h4.08c.68 0 1.28.4 1.44 1.08l8.68 26.52h-4.12l-2.56-8.32zm-1.04-3.48l-3.24-10.48c-.2-.72-.48-1.52-.68-2.24h-1.08l-.64 2.24-3.24 10.48h8.88zm16.039-.56l-.04-.2c-3.76-.52-5.2-2.96-5.16-7.32 0-5.84 2.56-8.08 8.88-8.08 4.48 0 6.6.04 9.6.36V29h-4V17.92l-5.56.04c-1.8 0-2.92.76-3.48 2.76l-2.32 8.28h-4.24l2.44-8.44c.72-2.48 2.4-3.56 3.88-3.92zm9.28-2.12v-10c-1.48-.04-3.36-.04-5.52-.04-3.68 0-4.92 1.04-4.96 4.88 0 3.52 1.24 5.16 4.88 5.16h5.6zm-213.824 50v.16c5.24.52 6.56 5.32 9.64 14.32h-4.24c-3.04-8.44-4.2-12.8-8.68-12.76h-2.48c.16.96.24 1.92.24 2.84V79h-3.8v-9.92c0-.92.12-1.88.28-2.84h-2.68c-4.44-.04-5.6 4.32-8.68 12.76h-4.2c3.08-9 4.4-13.8 9.6-14.32v-.16C5.219 64 3.859 59 1.259 51.4h4.08c2.44 6.84 3.92 11.6 8 11.6h2.72c-.16-1-.24-2.04-.24-3.12V51.4h3.8v8.48c0 1.08-.04 2.12-.2 3.12h2.48c4.12 0 5.6-4.76 8.08-11.6h4.08c-2.6 7.6-4.04 12.6-8.92 13.12zM56.26 75.68l.16 3.08c-3.64.32-7.88.32-11.84.32-3.44 0-5.52-1.92-5.52-4.96V56.28c0-3.04 2.12-4.96 5.52-4.96 3.96 0 8.2 0 11.84.32l-.16 3.12h-11c-1.6 0-2.2.68-2.2 2.56v5.52H54.7v3.24H43.06v7.04c0 1.88.6 2.56 2.2 2.56h11zM83.683 51.4h4.36c1.04 0 1.6.6 1.64 1.64L90.803 79h-4l-.96-24.28h-.8l-5.6 19.64c-.24.92-.8 1.36-1.72 1.36h-3.48c-.92 0-1.52-.44-1.76-1.36l-5.64-19.64h-.76L65.163 79h-3.96l1.04-25.96c.04-1.04.6-1.64 1.64-1.64h4.44c.92 0 1.4.48 1.68 1.36l4.68 16.16c.36 1.28.64 2.48.92 3.72h.72c.28-1.28.56-2.44.96-3.76l4.64-16.12c.28-.88.8-1.36 1.76-1.36zm31.755 0V79h-4V66.68c-3.24 1.72-6.8 2.4-9.24 2.4-4.28 0-6.28-2.04-6.28-6.32V51.4h4v10.56c-.04 2.48 1 3.56 3.72 3.56 2.64 0 4.68-.48 7.8-1.92V51.4h4zm25.636 0l-7.32 20.76c-1.4 3.84-2.96 6.84-6.4 7.12-1.44.12-3.84-.2-5.2-.6l.44-2.92c5.32.36 5.56.2 7.08-3.6l.48-1.16h-1.48c-1.6 0-2.4-.6-2.92-2l-6.24-17.6h4.08l5.36 15.64c.16.36.44.6.84.6h1.52l5.68-16.24h4.08zm26.135 13.12v.16c5.24.52 6.56 5.32 9.64 14.32h-4.24c-3.04-8.44-4.2-12.8-8.68-12.76h-2.48c.16.96.24 1.92.24 2.84V79h-3.8v-9.92c0-.92.12-1.88.28-2.84h-2.68c-4.44-.04-5.6 4.32-8.68 12.76h-4.2c3.08-9 4.4-13.8 9.6-14.32v-.16c-4.92-.52-6.28-5.52-8.88-13.12h4.08c2.44 6.84 3.92 11.6 8 11.6h2.72c-.16-1-.24-2.04-.24-3.12V51.4h3.8v8.48c0 1.08-.04 2.12-.2 3.12h2.48c4.12 0 5.6-4.76 8.08-11.6h4.08c-2.6 7.6-4.04 12.6-8.92 13.12zM202.412 79h-3.88V59.52c0-1.12.04-2.2.24-3.28h-.24c-.4 1.08-.96 2.24-1.44 3.12L185.492 79h-4.12V51.4h3.84v19.28c0 1.16-.08 2.24-.24 3.4h.2c.44-1.08.96-2.12 1.56-3.12l11.52-19.56h4.16V79zm26.813-27.6V79h-4.04V66h-12.04v13h-4V51.4h4v11.16h12.04V51.4h4.04zm21.357 19.28h-11l-2.56 8.32h-4.08l8.64-26.52c.2-.68.76-1.08 1.48-1.08h4.08c.68 0 1.28.4 1.44 1.08l8.68 26.52h-4.12l-2.56-8.32zm-1.04-3.48l-3.24-10.48c-.2-.72-.48-1.52-.68-2.24h-1.08l-.64 2.24-3.24 10.48h8.88z" fill="#fff"/></svg>
